!!!COM: Stadler, Maximilian
!!!CDT: 1748///-1833///
!!!COA: Haydn, Joseph
!!!OTL@@IT: Gioco filarmonico
!!!OTL@EN: Philharmonic Joke
!!!OTA@@IT: o sia maniera facile per comporre un infinito numero de minuetti e trio anche senza sapere il contrapunto
!!!OTA@EN: or the Art of Composing an Infinite Number of Minutes Without the Least Knowledge of Counterpoint
!!!PDT: 1781///
!!!PPR: Artaria
!!!SML: Gesellschaft der Musikfreundes, Vienna
!!!PPR2: Luigi Marescalchi
!!!PPP2: Napoli
!!!PDT2: 1790///
**kern	**kern	**kern
*Icello	*Ivioln	*Ivioln
*>[A,A,B,B,A]	*>[A,A,B,B,A]	*>[A,A,B,B,A]
*>norep[A,B]	*>norep[A,B]	*>norep[A,B]
*>A	*>A	*>A
*k[]	*k[]	*k[]
*M3/4	*M3/4	*M3/4
*MM120	*MM120	*MM120
!!section:  I
!!measure:  A
!!diceroll: 4
=69	=69	=69
8C	2.r	2gg
8G	.	.
8E	.	.
8G	.	.
8C	.	16ff
.	.	16ee
8G	.	16dd
.	.	16cc
!!section:  I
!!measure:  B
!!diceroll: 7
=157	=157	=157
2F	2c	8a
.	.	8cc
.	.	8ff
.	.	8aa
4E	4c	4gg
!!section:  I
!!measure:  C
!!diceroll: 5
=113	=113	=113
4BB	4G	16dd
.	.	16ee
.	.	16ff
.	.	16dd
4C	4G	8ee
.	.	8gg
4r	4r	16ff
.	.	16ee
.	.	16dd
.	.	16cc
!!section:  I
!!measure:  D
!!diceroll: 7
=167	=167	=167
4E	4c	8gg
.	.	8g
4D	4B	8ff
.	.	8f
4C	4c	4e
!!section:  I
!!measure:  E
!!diceroll: 3
=146	=146	=146
2.C	4r	8r
.	.	8f
.	4e	8g#
.	.	8a
.	4a	8cc
.	.	8ee
!!section:  I
!!measure:  F
!!diceroll: 6
=97	=97	=97
4BB	4d	16r
.	.	16d
.	.	16e
.	.	16f#
4r	4r	16g
.	.	16a
.	.	16b
.	.	16cc
4r	4r	16dd
.	.	16ee
.	.	16ff#
.	.	16gg
!!section:  I
!!measure:  G
!!diceroll: 8
=21	=21	=21
4D	8a	8a
.	8cc	8ee
4E	8b	8dd
.	8a	8cc
4DD	8g	8b
.	8f#	8a
!!section:  I
!!measure:  H
!!diceroll: 8
=127	=127	=127
8G	2.g	2.g
8GG	.	.
8BB	.	.
8D	.	.
4G	.	.
*>B	*>B	*>B
!!section:  II
!!measure:  A
!!diceroll: 7
=138	=138	=138
4r	4r	8g
.	.	8gg
4G	4B-	8ff
.	.	8ee
4G	4B-	8dd
.	.	8cc#
!!section:  II
!!measure:  B
!!diceroll: 7
=71	=71	=71
8F	4dd	8aa
8F	.	8a
8E	4cc#	8gg
8E	.	8a
8D	4dd	4ff
8D	.	.
!!section:  II
!!measure:  C
!!diceroll: 6
=64	=64	=64
4BB	12B	2g
.	12d	.
.	12g	.
4BB	12B	.
.	12d	.
.	12g	.
4BB	12B	16gg
.	.	16ff
.	12d	.
.	.	16ee
.	12g	.
.	.	16dd
!!section:  II
!!measure:  D
!!diceroll: 8
=175	=175	=175
4r	4r	16dd
.	.	16cc
.	.	16b
.	.	16cc
4C	12e	2g
.	12g	.
.	12cc	.
4C	12e	.
.	12g	.
.	12cc	.
!!section:  II
!!measure:  E
!!diceroll: 10
=137	=137	=137
2.F	4r	8r
.	.	8a
.	4A	8cc#
.	.	8dd
.	4d	8ff
.	.	8aa
!!section:  II
!!measure:  F
!!diceroll: 3
=18	=18	=18
4C	4r	16gg
.	.	16ee
.	.	16b
.	.	16cc
4E	12e	2g
.	12g	.
.	12cc	.
4C	12e	.
.	12g	.
.	12cc	.
!!section:  II
!!measure:  G
!!diceroll: 5
=52	=52	=52
4F	8.c	16aa
.	.	16gg
.	.	16aa
.	16d	16ff
4G	4c	4ee
4G	4B	4dd
!!section:  II
!!measure:  H
!!diceroll: 5
=170	=170	=170
4C	2.cc	2.cc
4G	.	.
4c	.	.
*-	*-	*-
!!!END: 2004/11/01/
